public/style/workarea/images/icons/exe-image-compact-icon.svg

<svg fill="none" height="25" viewBox="0 0 25 25" width="25" xmlns="http://www.w3.org/2000/svg"><g stroke="#0ba1a1" stroke-linecap="round" stroke-linejoin="round" stroke-width="2"><path d="m19.7427 3.37457h-14.00002c-1.10457 0-2 .89543-2 2v14.00003c0 1.1045.89543 2 2 2h14.00002c1.1045 0 2-.8955 2-2v-14.00003c0-1.10457-.8955-2-2-2z"/><path d="m21.7427 15.3746-5-5-11.00002 11"/><path d="m9.24268 10.3746c.82842 0 1.50002-.6716 1.50002-1.50003 0-.82842-.6716-1.5-1.50002-1.5-.82843 0-1.5.67158-1.5 1.5 0 .82843.67157 1.50003 1.5 1.50003z"/></g></svg>

<svg width="25" height="25" viewBox="0 0 25 25" fill="none" xmlns="http://www.w3.org/2000/svg">
<path d="M19.7427 3.37457H5.74268C4.63811 3.37457 3.74268 4.27 3.74268 5.37457V19.3746C3.74268 20.4791 4.63811 21.3746 5.74268 21.3746H19.7427C20.8472 21.3746 21.7427 20.4791 21.7427 19.3746V5.37457C21.7427 4.27 20.8472 3.37457 19.7427 3.37457Z" stroke="#0BA1A1" stroke-width="2" stroke-linecap="round" stroke-linejoin="round"/>
<path d="M21.7427 15.3746L16.7427 10.3746L5.74268 21.3746" stroke="#0BA1A1" stroke-width="2" stroke-linecap="round" stroke-linejoin="round"/>
<path d="M9.24268 10.3746C10.0711 10.3746 10.7427 9.703 10.7427 8.87457C10.7427 8.04615 10.0711 7.37457 9.24268 7.37457C8.41425 7.37457 7.74268 8.04615 7.74268 8.87457C7.74268 9.703 8.41425 10.3746 9.24268 10.3746Z" stroke="#0BA1A1" stroke-width="2" stroke-linecap="round" stroke-linejoin="round"/>
</svg>
